icons/syringe.svg

<svg width="48" height="48" viewBox="0 0 48 48" fill="none" xmlns="http://www.w3.org/2000/svg">
<path fill-rule="evenodd" clip-rule="evenodd" d="M6.81815 13.364C6.36628 13.8159 6.36628 14.5485 6.81815 15.0004C7.27002 15.4523 8.00264 15.4523 8.45451 15.0004L9.27321 14.1817L13.3636 18.2721L10.0909 21.5449C9.63899 21.9968 9.63899 22.7294 10.0909 23.1813C10.5427 23.6332 11.2753 23.6332 11.7272 23.1813L13.3632 21.5452L27.2727 35.455C28.9501 37.1325 31.4015 37.5646 33.4775 36.7511L34.6361 37.9097C35.242 38.5156 36.1002 38.7153 36.8724 38.5088L39.5455 41.182C39.9973 41.6339 40.7299 41.6339 41.1818 41.182C41.6337 40.7301 41.6337 39.9975 41.1818 39.5456L38.5083 36.872C38.7142 36.1001 38.5144 35.2425 37.9089 34.6369L36.7504 33.4784C37.564 31.4022 37.132 28.9506 35.4545 27.273L21.545 13.3632L23.1817 11.7265C23.6336 11.2746 23.6336 10.542 23.1817 10.0901C22.7299 9.63824 21.9972 9.63824 21.5454 10.0901L18.2726 13.3629L14.1823 9.27248L14.9999 8.4548C15.4518 8.00292 15.4518 7.27028 14.9999 6.8184C14.5481 6.36652 13.8155 6.36652 13.3636 6.8184L6.81815 13.364ZM16.8584 14.7772L12.7681 10.6867L10.6874 12.7674L14.7778 16.8579L16.8584 14.7772ZM20.1308 14.7775L14.7774 20.131L19.1834 24.5371L24.5368 19.1835L20.1308 14.7775ZM20.8197 26.1735L23.2743 28.6281L25.133 26.7694C25.5849 26.3175 26.3175 26.3175 26.7694 26.7694C27.2213 27.2213 27.2213 27.9539 26.7694 28.4058L24.9107 30.2645L26.5466 31.9005L28.4055 30.0416C28.8574 29.5897 29.59 29.5897 30.0419 30.0416C30.4937 30.4935 30.4937 31.2261 30.0419 31.678L28.183 33.5369L28.6869 34.0408C29.785 35.1389 31.3899 35.4213 32.7487 34.888L34.8875 32.7492C35.4208 31.3903 35.1384 29.7854 34.0403 28.6873L26.1731 20.8199L20.8197 26.1735ZM36.5224 36.0829C36.514 36.0718 36.5047 36.0612 36.4947 36.0512L35.6706 35.227C35.601 35.3045 35.529 35.3805 35.4545 35.455C35.3799 35.5296 35.3038 35.6017 35.2262 35.6714L36.0503 36.4955C36.0605 36.5056 36.0712 36.5149 36.0823 36.5234C36.1328 36.4337 36.1963 36.3492 36.2727 36.2728C36.3489 36.1967 36.433 36.1333 36.5224 36.0829Z" fill="black"/>
</svg>

<svg
  xmlns="http://www.w3.org/2000/svg"
  width="24"
  height="24"
  viewBox="0 0 24 24"
  fill="none"
  stroke="currentColor"
  stroke-width="2"
  stroke-linecap="round"
  stroke-linejoin="round"
>
  <path
    fill-rule="evenodd"
    d="M6.818 13.364A1.157 1.157 0 0 0 8.455 15l.818-.818 4.09 4.09-3.272 3.273a1.157 1.157 0 1 0 1.636 1.636l1.636-1.636 13.91 13.91a5.79 5.79 0 0 0 6.204 1.296l1.16 1.159a2.31 2.31 0 0 0 2.235.599l2.673 2.673a1.157 1.157 0 1 0 1.637-1.636l-2.674-2.674a2.31 2.31 0 0 0-.6-2.235l-1.158-1.159a5.79 5.79 0 0 0-1.295-6.205l-13.91-13.91 1.637-1.636a1.157 1.157 0 1 0-1.637-1.637l-3.272 3.273-4.09-4.09.817-.818a1.157 1.157 0 1 0-1.636-1.637zm10.04 1.413-4.09-4.09-2.08 2.08 4.09 4.09zm3.273 0-5.354 5.354 4.406 4.406 5.354-5.353zm.689 11.397 2.454 2.454 1.859-1.859a1.157 1.157 0 1 1 1.636 1.637l-1.858 1.859 1.636 1.636 1.858-1.86a1.157 1.157 0 1 1 1.637 1.637l-1.859 1.859.504.504a3.79 3.79 0 0 0 4.062.847l2.139-2.139a3.79 3.79 0 0 0-.848-4.062l-7.867-7.867zm15.702 9.909-.027-.032-.824-.824a6 6 0 0 1-.445.444l.824.825q.015.015.032.027a1.16 1.16 0 0 1 .44-.44"
    clip-rule="evenodd"
  />
</svg>
